images/svg/LinkedIn.svg

<svg width="25" height="24" viewBox="0 0 25 24" fill="none" xmlns="http://www.w3.org/2000/svg">
<path fill-rule="evenodd" clip-rule="evenodd" d="M5.55118 3.3042C4.41153 3.3042 3.48435 4.23017 3.48435 5.36833C3.48435 6.50724 4.41153 7.4338 5.55118 7.4338C6.6886 7.4338 7.61395 6.50724 7.61395 5.36833C7.61395 4.23017 6.6886 3.3042 5.55118 3.3042ZM3.76642 8.99818V20.4515H7.32904L7.33039 8.99818H3.76642ZM9.56453 8.99713V20.4503L13.119 20.4517L13.1204 14.7845C13.1204 13.3298 13.3738 11.8429 15.2533 11.8429C17.1042 11.8429 17.1042 13.5976 17.1042 14.879V20.4503L20.6628 20.449V14.1689C20.6628 11.3348 20.1455 8.71224 16.3928 8.71224C14.6302 8.71224 13.4768 9.70851 13.0245 10.5618H12.9745L12.9746 8.99713H9.56453ZM22.4354 24H1.98174C1.00586 24 0.211914 23.223 0.211914 22.268V1.73068C0.211914 0.776376 1.00586 0 1.98174 0H22.4354C23.415 0 24.2119 0.776376 24.2119 1.73068V22.268C24.2119 23.223 23.415 24 22.4354 24Z" fill="white"/>
</svg>

<svg xmlns="http://www.w3.org/2000/svg" width="25" height="24" fill="none"><path fill="#fff" fill-rule="evenodd" d="M5.551 3.304c-1.14 0-2.067.926-2.067 2.064 0 1.14.928 2.066 2.067 2.066a2.066 2.066 0 0 0 0-4.13ZM3.766 8.998v11.454H7.33L7.33 8.997H3.766Zm5.799 0V20.45l3.554.002.001-5.668c0-1.454.254-2.941 2.133-2.941 1.851 0 1.851 1.755 1.851 3.036v5.571l3.559-.001v-6.28c0-2.834-.518-5.457-4.27-5.457-1.763 0-2.916.997-3.369 1.85h-.05V8.997h-3.41ZM22.435 24H1.982c-.976 0-1.77-.777-1.77-1.732V1.731C.212.776 1.006 0 1.982 0h20.453c.98 0 1.777.776 1.777 1.73v20.538c0 .955-.797 1.732-1.777 1.732Z" clip-rule="evenodd"/></svg>
